X: 2402
T: Balfour Road
R: reel
M: 4/4
K: Dmajor
|:!downbow! A,B,DE "D"{E}F2F2|EFED "G"G,4|!upbow! (EF)ED "Bm" B,2 B,2|A,B,DE "D"D2 DD|
!upbow! (A,B,)DE "D"{E}F2F2|EFED "G" G,4|!upbow! (EF)ED "Bm" B,2 !upbow! (DE)|1 "G" D2 !upbow! (DE) "D" D2 A,2:|2 "G" D2 (DE) "D" D2> !upbow! (D2||
|:!upbow! (EF))ED "G" B,4|!upbow! (EF)ED "D" A,4|!upbow! (EF)ED "Bm" B,2 B,2|"A" A,B,DE "D" D2 DD:|
|:!upbow! (DF)Ac "D" d2 d2|cdcA "D" F4|(AB)AF "A" E2> !upbow! (D2|EF)ED "G" B,2 B,2|
DFAc "D" d2d2|dcAF "G" B4|(BA)FD "A" E2> {F2E2}D2|1 "G" D2 (DE) "D"D2 D2:|2 "G"D2 (DE) "D" D4||

